X:1
T:O?Connor?s Fancy
M:C|
L:1/8
R:Hornpipe
S:O?Neill ? Dance Music of Ireland: 1001 Gems (1907), No. 876
Z:AK/Fiddler?s Companion
K:D
A>G|F>AD>D
D>FE>D|C>EF>G G2 G>E|F>AB>c d>AB>G|F2E2E2 A>G|
F>AD>D
D>FE>D|C>DE>F G2 F>E|F>AB>c e>AB>G|F2D2D2:|
|:c2|d>AF>A
d>fe>d|e>dc>d e>fg>e|f>de>c d>fe>d|c2A2A2 d>c|
B>AG>A
d>fe>d|e>dc>A B>AG>F|G>AB>c d>AB>G|F2D2D2:|



